public/icons/rubl.svg

<svg width="88" height="89" viewBox="0 0 88 89" fill="none" xmlns="http://www.w3.org/2000/svg">
<circle cx="44.0002" cy="44.2992" r="44" fill="white"/>
<path d="M40.9884 59.1321C41.9978 59.3157 43.099 59.4992 44.2002 59.4992C52.826 59.4992 59.8002 52.5251 59.8002 43.8992C59.8002 35.2733 52.826 28.2992 44.2002 28.2992C43.099 28.2992 41.9978 28.391 40.9884 28.6663" stroke="#1A56FF" stroke-width="2" stroke-miterlimit="10" stroke-linecap="round" stroke-linejoin="round"/>
<path d="M47.4119 59.1321C48.4213 59.3157 49.5225 59.4992 50.6237 59.4992C59.2496 59.4992 66.2237 52.5251 66.2237 43.8992C66.2237 35.2733 59.2496 28.2992 50.6237 28.2992C49.5225 28.2992 48.4213 28.391 47.4119 28.6663" stroke="#1A56FF" stroke-width="2" stroke-miterlimit="10" stroke-linecap="round" stroke-linejoin="round"/>
<path d="M37.7766 28.2992C29.1508 28.2992 22.1766 35.2733 22.1766 43.8992C22.1766 52.5251 29.1508 59.4992 37.7766 59.4992C46.4025 59.4992 53.3766 52.5251 53.3766 43.8992C53.3766 35.2733 46.4025 28.2992 37.7766 28.2992Z" stroke="#1A56FF" stroke-width="2" stroke-miterlimit="10" stroke-linecap="round" stroke-linejoin="round"/>
<path d="M35.7845 45.7957V47.2826H40.3139V48.7309H35.7845V51.2992H33.7845V48.7309H32.0002V47.2826H33.7845V45.7957H32.0002V44.0964H33.7845V37.2992H38.0002C38.9414 37.2992 39.7518 37.3636 40.4316 37.4923C41.1244 37.621 41.7453 37.8399 42.2943 38.1488C42.8564 38.4578 43.2812 38.8955 43.5688 39.462C43.8564 40.0284 44.0002 40.7236 44.0002 41.5475C44.0002 43.0923 43.4773 44.1866 42.4316 44.8302C41.3858 45.4739 39.9087 45.7957 38.0002 45.7957H35.7845ZM35.7845 44.0964H38.0982C39.327 44.0964 40.2747 43.9162 40.9414 43.5557C41.6211 43.1953 41.961 42.5259 41.961 41.5475C41.961 40.5691 41.6211 39.8997 40.9414 39.5392C40.2747 39.1787 39.327 38.9985 38.0982 38.9985H35.7845V44.0964Z" fill="#1A56FF"/>
</svg>

<svg xmlns="http://www.w3.org/2000/svg" width="88" height="89" fill="none"><circle cx="44" cy="44.299" r="44" fill="#fff"/><path stroke="#1A56FF" stroke-linecap="round" stroke-linejoin="round" stroke-miterlimit="10" stroke-width="2" d="M40.988 59.132c1.01.184 2.111.367 3.212.367 8.626 0 15.6-6.974 15.6-15.6s-6.974-15.6-15.6-15.6c-1.101 0-2.202.092-3.212.367"/><path stroke="#1A56FF" stroke-linecap="round" stroke-linejoin="round" stroke-miterlimit="10" stroke-width="2" d="M47.412 59.132c1.01.184 2.11.367 3.212.367 8.626 0 15.6-6.974 15.6-15.6s-6.974-15.6-15.6-15.6c-1.102 0-2.203.092-3.212.367"/><path stroke="#1A56FF" stroke-linecap="round" stroke-linejoin="round" stroke-miterlimit="10" stroke-width="2" d="M37.777 28.3c-8.626 0-15.6 6.973-15.6 15.6 0 8.625 6.974 15.6 15.6 15.6s15.6-6.975 15.6-15.6c0-8.627-6.974-15.6-15.6-15.6Z"/><path fill="#1A56FF" d="M35.785 45.796v1.487h4.529v1.448h-4.53v2.568h-2v-2.568H32v-1.448h1.785v-1.487H32v-1.7h1.785V37.3H38c.941 0 1.752.065 2.432.193a6.007 6.007 0 0 1 1.862.657c.562.309.987.746 1.275 1.313.287.566.431 1.262.431 2.085 0 1.545-.523 2.64-1.568 3.283-1.046.644-2.523.966-4.432.966h-2.215Zm0-1.7h2.313c1.229 0 2.177-.18 2.843-.54.68-.36 1.02-1.03 1.02-2.008 0-.979-.34-1.648-1.02-2.009-.666-.36-1.614-.54-2.843-.54h-2.313v5.097Z"/></svg>
